map.svg

<?xml version="1.0" encoding="UTF-8" standalone="no"?>
<!-- Uploaded to: SVG Repo, www.svgrepo.com, Generator: SVG Repo Mixer Tools -->

<svg
   fill="#000000"
   height="800px"
   width="800px"
   version="1.1"
   id="Layer_1"
   viewBox="0 0 315 315"
   xml:space="preserve"
   sodipodi:docname="map.svg"
   inkscape:version="1.4.2 (f4327f4, 2025-05-13)"
   xmlns:inkscape="http://www.inkscape.org/namespaces/inkscape"
   xmlns:sodipodi="http://sodipodi.sourceforge.net/DTD/sodipodi-0.dtd"
   xmlns="http://www.w3.org/2000/svg"
   xmlns:svg="http://www.w3.org/2000/svg"><defs
   id="defs5" /><sodipodi:namedview
   id="namedview5"
   pagecolor="#ffffff"
   bordercolor="#000000"
   borderopacity="0.25"
   inkscape:showpageshadow="2"
   inkscape:pageopacity="0.0"
   inkscape:pagecheckerboard="0"
   inkscape:deskcolor="#d1d1d1"
   inkscape:zoom="0.64965436"
   inkscape:cx="289.38465"
   inkscape:cy="437.92518"
   inkscape:window-width="1920"
   inkscape:window-height="974"
   inkscape:window-x="-11"
   inkscape:window-y="-11"
   inkscape:window-maximized="1"
   inkscape:current-layer="Layer_1" />
<g
   id="g5"
   transform="matrix(0.86201169,0,0,0.86146479,17.793564,18.788837)">
	<g
   id="g4">
		<g
   id="g3">
			<path
   d="M 157.5,0 C 93.319,0 41.103,52.215 41.103,116.397 c 0,62.138 106.113,190.466 110.63,195.898 1.425,1.713 3.538,2.705 5.767,2.705 2.228,0 4.342,-0.991 5.767,-2.705 4.518,-5.433 110.63,-133.76 110.63,-195.898 C 273.897,52.215 221.682,0 157.5,0 Z m 0,295.598 C 148.091,283.849 128.542,258.817 109.197,230.201 74.463,178.822 56.103,139.469 56.103,116.397 56.103,60.486 101.59,15 157.5,15 c 55.91,0 101.397,45.486 101.397,101.397 0,23.071 -18.359,62.424 -53.094,113.804 -19.346,28.616 -38.894,53.648 -48.303,65.397 z"
   id="path1" />
			<path
   d="m 195.657,213.956 c -3.432,-2.319 -8.095,-1.415 -10.413,2.017 -10.121,14.982 -21.459,30.684 -33.699,46.67 -2.518,3.289 -1.894,7.996 1.395,10.514 1.36,1.042 2.963,1.546 4.554,1.546 2.254,0 4.484,-1.013 5.96,-2.941 12.42,-16.22 23.933,-32.165 34.219,-47.392 2.319,-3.432 1.417,-8.095 -2.016,-10.414 z"
   id="path2" />
			<path
   d="M 157.5,57.5 C 123.589,57.5 96,85.089 96,119 c 0,33.911 27.589,61.5 61.5,61.5 33.911,0 61.5,-27.589 61.5,-61.5 0,-33.911 -27.589,-61.5 -61.5,-61.5 z m 0,108 c -25.64,0 -46.5,-20.86 -46.5,-46.5 0,-25.64 20.86,-46.5 46.5,-46.5 25.641,0 46.5,20.86 46.5,46.5 0,25.64 -20.859,46.5 -46.5,46.5 z"
   id="path3" />
		</g>
	</g>
</g>
</svg>

<?xml version="1.0" encoding="iso-8859-1"?>
<!-- Uploaded to: SVG Repo, www.svgrepo.com, Generator: SVG Repo Mixer Tools -->
<svg fill="#000000" height="800px" width="800px" version="1.1" id="Layer_1" xmlns="http://www.w3.org/2000/svg" xmlns:xlink="http://www.w3.org/1999/xlink" 
	 viewBox="0 0 315 315" xml:space="preserve">
<g>
	<g>
		<g>
			<path d="M157.5,0C93.319,0,41.103,52.215,41.103,116.397c0,62.138,106.113,190.466,110.63,195.898
				c1.425,1.713,3.538,2.705,5.767,2.705c2.228,0,4.342-0.991,5.767-2.705c4.518-5.433,110.63-133.76,110.63-195.898
				C273.897,52.215,221.682,0,157.5,0z M157.5,295.598c-9.409-11.749-28.958-36.781-48.303-65.397
				c-34.734-51.379-53.094-90.732-53.094-113.804C56.103,60.486,101.59,15,157.5,15c55.91,0,101.397,45.486,101.397,101.397
				c0,23.071-18.359,62.424-53.094,113.804C186.457,258.817,166.909,283.849,157.5,295.598z"/>
			<path d="M195.657,213.956c-3.432-2.319-8.095-1.415-10.413,2.017c-10.121,14.982-21.459,30.684-33.699,46.67
				c-2.518,3.289-1.894,7.996,1.395,10.514c1.36,1.042,2.963,1.546,4.554,1.546c2.254,0,4.484-1.013,5.96-2.941
				c12.42-16.22,23.933-32.165,34.219-47.392C199.992,220.938,199.09,216.275,195.657,213.956z"/>
			<path d="M157.5,57.5C123.589,57.5,96,85.089,96,119s27.589,61.5,61.5,61.5S219,152.911,219,119S191.411,57.5,157.5,57.5z
				 M157.5,165.5c-25.64,0-46.5-20.86-46.5-46.5s20.86-46.5,46.5-46.5c25.641,0,46.5,20.86,46.5,46.5S183.141,165.5,157.5,165.5z"/>
		</g>
	</g>
</g>
</svg>
